public/images/menu.svg

<svg xmlns:xlink="http://www.w3.org/1999/xlink" xmlns="http://www.w3.org/2000/svg" width="15" height="15" viewBox="0 0 15 15" fill="none">
<path d="M6.34618 0H0.576925C0.258288 0 0 0.258288 0 0.576925V6.34618C0 6.66481 0.258288 6.9231 0.576925 6.9231H6.34618C6.66481 6.9231 6.9231 6.66481 6.9231 6.34618V0.576925C6.9231 0.258288 6.66481 0 6.34618 0Z" fill="#B51F25"/>
<path d="M14.4224 0H8.6531C8.33446 0 8.07617 0.258288 8.07617 0.576925V6.34618C8.07617 6.66481 8.33446 6.9231 8.6531 6.9231H14.4224C14.741 6.9231 14.9993 6.66481 14.9993 6.34618V0.576925C14.9993 0.258288 14.741 0 14.4224 0Z" fill="#B51F25"/>
<path d="M6.34618 8.07727H0.576925C0.258288 8.07727 0 8.33556 0 8.6542V14.4235C0 14.7421 0.258288 15.0004 0.576925 15.0004H6.34618C6.66481 15.0004 6.9231 14.7421 6.9231 14.4235V8.6542C6.9231 8.33556 6.66481 8.07727 6.34618 8.07727Z" fill="#B51F25"/>
<path d="M14.4224 8.07727H8.6531C8.33446 8.07727 8.07617 8.33556 8.07617 8.6542V14.4235C8.07617 14.7421 8.33446 15.0004 8.6531 15.0004H14.4224C14.741 15.0004 14.9993 14.7421 14.9993 14.4235V8.6542C14.9993 8.33556 14.741 8.07727 14.4224 8.07727Z" fill="#B51F25"/>
</svg>

<svg xmlns="http://www.w3.org/2000/svg" width="15" height="15" fill="none"><path fill="#B51F25" d="M6.346 0H.576A.577.577 0 0 0 0 .577v5.77c0 .318.258.576.577.576h5.77a.577.577 0 0 0 .576-.577V.576A.577.577 0 0 0 6.346 0M14.422 0H8.653a.577.577 0 0 0-.577.577v5.77c0 .318.258.576.577.576h5.77a.577.577 0 0 0 .576-.577V.576A.577.577 0 0 0 14.422 0M6.346 8.077H.576A.577.577 0 0 0 0 8.654v5.77c0 .318.258.576.577.576h5.77a.577.577 0 0 0 .576-.576v-5.77a.577.577 0 0 0-.577-.577M14.422 8.077H8.653a.577.577 0 0 0-.577.577v5.77c0 .318.258.576.577.576h5.77a.577.577 0 0 0 .576-.576v-5.77a.577.577 0 0 0-.577-.577"/></svg>
